X:48
T:Lilting Banshee
C:Traditional
M:6/8
R:jig
K:Ador
EAA EAA | BAB G2A | Bee edB | dBA GED |
EAA EAA | BAB G2A | Bee edB | BAG A2G |
EAA EAA | BAB G2A | Bee edB | def gfg |
eAA eAA | BAB G2A | Bee edB | BAG A2d |
|: eaa age | dBA G2A | Bee edB | def gfg |
eaa age | dBA G2A | Bee edB | BAG A2d :|

